X: 1
T: Tom Billy's
M: 6/8
L: 1/8
R: jig
K: Ador
e3 gfg|fge edB|~G3 BAB|GBd g2f|
e3 gfg|fge edB|GBd gfg|edB ABd:|
|:e2a age|aba agf|~g3 ged|GBd g2f|
eae aea|dgd gdg|e3 gfg|edB ABd:|
